src/assets/images/icons-v2/icon-lsk.svg

<?xml version="1.0" encoding="UTF-8"?>
<svg width="40px" height="40px" viewBox="0 0 36 36" version="1.1" xmlns="http://www.w3.org/2000/svg" xmlns:xlink="http://www.w3.org/1999/xlink">
    <!-- Generator: sketchtool 55.1 (78136) - https://sketchapp.com -->
    <title>AB157423-C045-44B2-9D26-7FD8B3DB5FA3</title>
    <desc>Created with sketchtool.</desc>
    <defs>
        <circle id="path-1" cx="18" cy="18" r="18"></circle>
    </defs>
    <g id="🏡--1.0-Dashboard" stroke="none" stroke-width="1" fill="none" fill-rule="evenodd">
        <g id="1.1.1-Dashboard" transform="translate(-1095.000000, -18.000000)">
            <g id="Group-10">
                <g id="Group-5" transform="translate(875.000000, 0.000000)">
                    <g id="Avatar---48" transform="translate(220.000000, 18.000000)">
                        <mask id="mask-2" fill="white">
                            <use xlink:href="#path-1"></use>
                        </mask>
                        <use id="Mask" fill="#4070F4" xlink:href="#path-1"></use>
                        <path d="M16.5662522,26.9562831 C16.5527941,26.9708554 16.5258779,26.9854277 16.5124197,27 L15.0051091,27 C14.9781929,27 14.9647347,26.9854277 14.9512766,26.9708554 L10.5100936,21.5645264 C10.4966355,21.5353817 10.4966355,21.5062371 10.5100936,21.4770924 L16.0413852,11.1890377 C16.0683014,11.1453208 16.1355921,11.1453208 16.1625084,11.1890377 L17.7101933,14.0743562 C17.7236515,14.0889285 17.7236515,14.1180731 17.7101933,14.1472177 L13.9688331,21.0982122 C13.955375,21.1273569 13.9688331,21.1565015 13.9822912,21.1856462 L16.2163409,23.8960968 C16.229799,23.9106691 16.2567153,23.9252414 16.2701734,23.9252414 L18.9079669,23.9252414 C18.9752576,23.9252414 19.0021738,23.998103 18.9617995,24.04182 L16.5662522,26.9562831 Z M18.1784814,7.54295154 C18.2062465,7.48568282 18.2756593,7.48568282 18.2895419,7.54295154 L26.2442497,21.5737886 C26.2581322,21.6024229 26.2442497,21.6310573 26.2303671,21.6596917 L21.6491218,26.9713656 C21.6352392,26.9856828 21.6074741,27 21.5935915,27 L17.873065,27 C17.8036522,27 17.7758871,26.9284141 17.8175348,26.8854626 L20.3025133,23.9933921 L22.6347837,21.3017621 C22.6625488,21.2731278 22.6625488,21.2444934 22.6486662,21.215859 L18.2340116,13.3986784 L16.5681043,10.4493392 C16.5542217,10.435022 16.5542217,10.4063877 16.5681043,10.3777533 L18.1784814,7.54295154 Z" id="Shape" fill="#FFFFFF" fill-rule="nonzero" mask="url(#mask-2)"></path>
                    </g>
                </g>
            </g>
        </g>
    </g>
</svg>

<svg width="40" height="40" viewBox="0 0 36 36" xmlns="http://www.w3.org/2000/svg" xmlns:xlink="http://www.w3.org/1999/xlink"><defs><circle id="a" cx="18" cy="18" r="18"/></defs><g fill="none" fill-rule="evenodd"><mask id="b" fill="#fff"><use xlink:href="#a"/></mask><use fill="#4070F4" xlink:href="#a"/><path d="M16.566 26.956c-.013.015-.04.03-.054.044h-1.507c-.027 0-.04-.015-.054-.03l-4.44-5.405a.1.1 0 0 1 0-.088l5.53-10.288a.072.072 0 0 1 .122 0l1.547 2.885c.014.015.014.044 0 .073l-3.741 6.951c-.014.03 0 .059.013.088l2.234 2.71c.014.015.04.03.054.03h2.638a.07.07 0 0 1 .054.116l-2.396 2.914zm1.612-19.413c.028-.057.098-.057.112 0l7.954 14.03c.014.03 0 .058-.014.087l-4.58 5.311a.104.104 0 0 1-.056.029h-3.72c-.07 0-.098-.072-.056-.115l2.485-2.892 2.332-2.691c.028-.029.028-.058.014-.086l-4.415-7.817-1.666-2.95c-.014-.014-.014-.043 0-.071l1.61-2.835z" fill="#FFF" fill-rule="nonzero" mask="url(#b)"/></g></svg>
